X:1
T:Title
%%score ( 1 2 ) { 3 | 4 }
L:1/8
Q:1/4=108
M:3/4
K:Eb
V:1 treble nm="Grand Piano, Unnamed-000"
V:2 treble 
V:3 bass nm="Choir Pad, Nettleton"
V:4 bass 
V:1
 [EG][DF] E2 E2 | [EG][EB] [DF]2 [DF]2 | [EG][EB] [Ec]2 [EB]2 | [EG][DF] E4 | [EG][DF] E2 E2 | %5
w: By~Wyeth's~Repository~of~Sacred~Music,~1813 * * *|||||
 [EG][EB] [DF]2 [DF]2 | [EG][EB] [Ec]2 [EB]2 | [EG][DF] E4 | z .c z2 z2 | z2 .c2 z2 | z .c z2 z2 | %11
w: ||||||
 [Ac][FB] [Ge]4 | [EG][DF] E2 E2 | [EG][EB] [DF]2 [DF]2 | [EG][EB] [Ec]2 [EB]2 | [EG][DF] E4- | %16
w: |||||
 E2 z2 z2 |] %17
w: |
V:2
 x6 | x6 | x6 | x6 | x6 | x6 | x6 | x6 | [EB]A/-[Ad]/ [Ge]2 [Bd]2 | [Ac][GB] E-[EB] [EG]2 | %10
 [EB]A/-[Ad]/ [Ge]2 [Bd]2 | x6 | x6 | x6 | x6 | x6 | x6 |] %17
V:3
 B,A, G,2 G,2 | B,B, B,2 B,2 | B,B, A,2 G,2 | B,A, G,4 | B,A, G,2 G,2 | B,B, B,2 B,2 | %6
 B,B, A,2 G,2 | B,A, G,4 | B,A, B,2 B,2 | EE A,G, B,2 | B,A, B,2 B,2 | ED B,4 | B,A, G,2 G,2 | %13
 B,B, B,2 B,2 | B,B, A,2 G,2 | B,A, G,4- | G,2 z2 z2 |] %17
V:4
 E,B,, E,2 E,2 | E,G,, B,,2 B,,2 | E,G, z2 E,2 | B,,B,, E,4 | E,B,, E,2 E,2 | E,G,, B,,2 B,,2 | %6
 E,G, z2 E,2 | B,,B,, E,4 | G,F, E,2 G,2 | A,A, E,2 E,2 | G,F, E,2 G,2 | A,B, E,4 | E,B,, E,2 E,2 | %13
 E,G,, B,,2 B,,2 | E,G, z2 E,2 | B,,B,, E,4- | E,2 z2 z2 |] %17

